src/assets/svg/background-line.svg

<svg width="2915.768" height="1634.658" viewBox="0 0 2915.77 1634.66" fill="none" xmlns="http://www.w3.org/2000/svg">
  <defs>
    <linearGradient x1="1457.907" y1="25.057" x2="1457.907" y2="1609.646" id="a" gradientUnits="userSpaceOnUse">
      <stop stop-color="#161616"/>
      <stop offset="1" stop-color="#DD293F" stop-opacity=".6"/>
    </linearGradient>
  </defs>
  <path d="M25.05 25.05c33.52 12.89 65.29 47.3 87.79 73.94 24.2 28.64 44.71 62.24 64.43 94.06 28.43 45.85 53.44 92.86 76.35 141.62 39.94 84.98 83.49 166.9 140.66 241.7 72.01 94.19 169.8 179.03 274.34 235.56 122.49 66.24 260.12 88.51 398.14 66.84 180.72-28.39 359.95-75.64 534.82-128.5 155.61-47.05 301.76-113.51 424.75-221.59 54.65-48.03 119.44-106.5 135.12-180.88 5.67-26.96 6.06-59.12-6.03-84.3-29.8-62.08-94.8-87.85-158.96-100.68-57.25-11.45-115.75-13.29-174.02-11.8-64.71 1.66-126.21 21.72-185.1 47.33-51.12 22.23-102.44 50-145.95 85.14-43.21 34.9-77.99 81.35-105.02 129.58-51.01 91.04-75.72 189.39-61.9 293.84 15.32 115.76 72.43 224.34 140.06 317.34 94.73 130.25 232.19 223.12 374.77 293.72 167.74 83.06 346.67 153.01 528.8 196.78 95.04 22.84 191.78 39.4 287.82 57.56 77.9 14.73 156.32 26.56 234.84 37.34"/>
  <path d="M25.05 25.05c33.52 12.89 65.29 47.3 87.79 73.94 24.2 28.64 44.71 62.24 64.43 94.06 28.43 45.85 53.44 92.86 76.35 141.62 39.94 84.98 83.49 166.9 140.66 241.7 72.01 94.19 169.8 179.03 274.34 235.56 122.49 66.24 260.12 88.51 398.14 66.84 180.72-28.39 359.95-75.64 534.82-128.5 155.61-47.05 301.76-113.51 424.75-221.59 54.65-48.03 119.44-106.5 135.12-180.88 5.67-26.96 6.06-59.12-6.03-84.3-29.8-62.08-94.8-87.85-158.96-100.68-57.25-11.45-115.75-13.29-174.02-11.8-64.71 1.66-126.21 21.72-185.1 47.33-51.12 22.23-102.44 50-145.95 85.14-43.21 34.9-77.99 81.35-105.02 129.58-51.01 91.04-75.72 189.39-61.9 293.84 15.32 115.76 72.43 224.34 140.06 317.34 94.73 130.25 232.19 223.12 374.77 293.72 167.74 83.06 346.67 153.01 528.8 196.78 95.04 22.84 191.78 39.4 287.82 57.56 77.9 14.73 156.32 26.56 234.84 37.34" stroke="url(#a)" stroke-width="50" stroke-linecap="round"/>
</svg>

<svg width="2915.768311" height="1634.658081" viewBox="0 0 2915.77 1634.66" fill="none" xmlns="http://www.w3.org/2000/svg" xmlns:xlink="http://www.w3.org/1999/xlink">
	<desc>
			Created with Pixso.
	</desc>
	<defs>
		<linearGradient x1="1457.906616" y1="25.057220" x2="1457.906616" y2="1609.645508" id="paint_linear_39_1919_0" gradientUnits="userSpaceOnUse">
			<stop stop-color="#161616"/>
			<stop offset="1.000000" stop-color="#DD293F" stop-opacity="0.600000"/>
		</linearGradient>
	</defs>
	<path id="line" d="M25.05 25.05C58.57 37.94 90.34 72.35 112.84 98.99C137.04 127.63 157.55 161.23 177.27 193.05C205.7 238.9 230.71 285.91 253.62 334.67C293.56 419.65 337.11 501.57 394.28 576.37C466.29 670.56 564.08 755.4 668.62 811.93C791.11 878.17 928.74 900.44 1066.76 878.77C1247.48 850.38 1426.71 803.13 1601.58 750.27C1757.19 703.22 1903.34 636.76 2026.33 528.68C2080.98 480.65 2145.77 422.18 2161.45 347.8C2167.12 320.84 2167.51 288.68 2155.42 263.5C2125.62 201.42 2060.62 175.65 1996.46 162.82C1939.21 151.37 1880.71 149.53 1822.44 151.02C1757.73 152.68 1696.23 172.74 1637.34 198.35C1586.22 220.58 1534.9 248.35 1491.39 283.49C1448.18 318.39 1413.4 364.84 1386.37 413.07C1335.36 504.11 1310.65 602.46 1324.47 706.91C1339.79 822.67 1396.9 931.25 1464.53 1024.25C1559.26 1154.5 1696.72 1247.37 1839.3 1317.97C2007.04 1401.03 2185.97 1470.98 2368.1 1514.75C2463.14 1537.59 2559.88 1554.15 2655.92 1572.31C2733.82 1587.04 2812.24 1598.87 2890.76 1609.65" stroke="#161616" stroke-opacity="0" stroke-width="50.000000" stroke-linecap="round"/>
	<path id="line" d="M25.05 25.05C58.57 37.94 90.34 72.35 112.84 98.99C137.04 127.63 157.55 161.23 177.27 193.05C205.7 238.9 230.71 285.91 253.62 334.67C293.56 419.65 337.11 501.57 394.28 576.37C466.29 670.56 564.08 755.4 668.62 811.93C791.11 878.17 928.74 900.44 1066.76 878.77C1247.48 850.38 1426.71 803.13 1601.58 750.27C1757.19 703.22 1903.34 636.76 2026.33 528.68C2080.98 480.65 2145.77 422.18 2161.45 347.8C2167.12 320.84 2167.51 288.68 2155.42 263.5C2125.62 201.42 2060.62 175.65 1996.46 162.82C1939.21 151.37 1880.71 149.53 1822.44 151.02C1757.73 152.68 1696.23 172.74 1637.34 198.35C1586.22 220.58 1534.9 248.35 1491.39 283.49C1448.18 318.39 1413.4 364.84 1386.37 413.07C1335.36 504.11 1310.65 602.46 1324.47 706.91C1339.79 822.67 1396.9 931.25 1464.53 1024.25C1559.26 1154.5 1696.72 1247.37 1839.3 1317.97C2007.04 1401.03 2185.97 1470.98 2368.1 1514.75C2463.14 1537.59 2559.88 1554.15 2655.92 1572.31C2733.82 1587.04 2812.24 1598.87 2890.76 1609.65" stroke="url(#paint_linear_39_1919_0)" stroke-opacity="1.000000" stroke-width="50.000000" stroke-linecap="round"/>
</svg>
